resources/svg/thumbprint.svg

<svg xmlns="http://www.w3.org/2000/svg" fill="none" viewBox="0 0 14 14"><path fill="currentColor" fill-rule="evenodd" d="M9.62502 0.702379C8.41921 0.00621687 6.98624 -0.18244 5.64133 0.177909C4.29642 0.538258 3.14974 1.4181 2.45352 2.62388C2.2464 2.98259 2.36929 3.44129 2.72801 3.64841C3.08672 3.85553 3.54541 3.73264 3.75253 3.37392C4.24983 2.51265 5.06889 1.88419 6.02954 1.6268C6.99019 1.36941 8.01374 1.50417 8.87503 2.00142C9.23375 2.20853 9.69245 2.08562 9.89955 1.7269C10.1067 1.36817 9.98374 0.909482 9.62502 0.702379ZM10.7408 3.13725C11.1148 2.95923 11.5624 3.11811 11.7404 3.49212C12.0733 4.19155 12.25 4.96177 12.25 5.74877V5.74881V8.75077C12.25 9.44021 12.1142 10.1229 11.8504 10.7599C11.5865 11.3968 11.1998 11.9756 10.7123 12.4631C10.2248 12.9506 9.64605 13.3373 9.00909 13.6011C8.37213 13.865 7.68944 14.0008 7 14.0008C6.58579 14.0008 6.25 13.665 6.25 13.2508C6.25 12.8366 6.58579 12.5008 7 12.5008C7.49246 12.5008 7.98009 12.4038 8.43506 12.2153C8.89003 12.0269 9.30343 11.7506 9.65165 11.4024C9.99987 11.0542 10.2761 10.6408 10.4645 10.1858C10.653 9.73086 10.75 9.24323 10.75 8.75077V5.74877V5.74873C10.75 5.18659 10.6238 4.63646 10.386 4.13679C10.208 3.76278 10.3668 3.31527 10.7408 3.13725ZM2.5 5.49805C2.91421 5.49805 3.25 5.83384 3.25 6.24805V8.75105V8.7513C3.24975 9.48952 3.46739 10.2114 3.87565 10.8264C4.07795 11.1312 4.3226 11.4031 4.60075 11.6346C4.91909 11.8996 4.96232 12.3725 4.69731 12.6909C4.43229 13.0092 3.95939 13.0524 3.64105 12.7874C3.25165 12.4633 2.90913 12.0827 2.62591 11.656C2.05439 10.795 1.7497 9.78446 1.75 8.75105V8.75098V8.75079V6.24805C1.75 5.83384 2.08579 5.49805 2.5 5.49805ZM7.07404 4.65051C6.94484 4.61857 6.81011 4.61603 6.6798 4.64308C6.27423 4.72728 5.8772 4.46676 5.793 4.06119C5.7088 3.65563 5.96933 3.25859 6.37489 3.1744C6.72501 3.10171 7.08697 3.10854 7.4341 3.19437C7.78122 3.2802 8.10466 3.44285 8.38056 3.67033C8.65645 3.89781 8.87777 4.18431 9.0282 4.50871C9.17788 4.8315 9.25357 5.18363 9.24976 5.53937V6.58653C9.24976 7.00074 8.91398 7.33653 8.49976 7.33653C8.08555 7.33653 7.74976 7.00074 7.74976 6.58653V5.53501V5.52532L7.74983 5.52532C7.75154 5.39224 7.72337 5.26047 7.66738 5.13972C7.61139 5.01898 7.52901 4.91234 7.42632 4.82767C7.32363 4.743 7.20325 4.68246 7.07404 4.65051ZM5.98434 7.03467C5.98434 6.62046 5.64855 6.28467 5.23434 6.28467C4.82013 6.28467 4.48434 6.62046 4.48434 7.03467V8.83549C4.47795 9.3186 4.61859 9.79231 4.88767 10.1937C5.15797 10.597 5.54498 10.908 5.99691 11.0853C6.44884 11.2625 6.94413 11.2975 7.41649 11.1855C7.88885 11.0736 8.31574 10.82 8.64003 10.4588C8.91674 10.1505 8.89119 9.67636 8.58297 9.39965C8.27474 9.12294 7.80055 9.14849 7.52384 9.45671C7.4037 9.59055 7.24554 9.68449 7.07053 9.72597C6.89553 9.76745 6.71203 9.75449 6.5446 9.68882C6.37716 9.62315 6.23378 9.50791 6.13364 9.35852C6.0335 9.20913 5.98137 9.03271 5.98424 8.85288L5.98434 8.85288V8.84091V7.03467Z" clip-rule="evenodd"></path></svg>

<svg xmlns="http://www.w3.org/2000/svg" fill="none" viewBox="0 0 14 14"><path fill="currentColor" fill-rule="evenodd" d="M9.625.702a5.25 5.25 0 0 0-7.171 1.922.75.75 0 1 0 1.299.75A3.75 3.75 0 0 1 8.875 2a.75.75 0 1 0 .75-1.299Zm1.116 2.435a.75.75 0 0 1 1 .355c.332.7.509 1.47.509 2.257V8.75A5.251 5.251 0 0 1 7 14a.75.75 0 0 1 0-1.5 3.75 3.75 0 0 0 3.75-3.75V5.749a3.75 3.75 0 0 0-.364-1.612.75.75 0 0 1 .355-1ZM2.5 5.498a.75.75 0 0 1 .75.75v2.503a3.75 3.75 0 0 0 1.35 2.884.75.75 0 0 1-.959 1.152A5.247 5.247 0 0 1 1.75 8.751V6.248a.75.75 0 0 1 .75-.75Zm4.574-.847a.89.89 0 0 0-.394-.008.75.75 0 1 1-.305-1.469A2.39 2.39 0 0 1 9.25 5.54v1.048a.75.75 0 1 1-1.5 0V5.525a.89.89 0 0 0-.676-.874Zm-1.09 2.384a.75.75 0 0 0-1.5 0v1.8A2.383 2.383 0 0 0 8.64 10.46a.75.75 0 0 0-1.116-1.002.883.883 0 0 1-1.54-.604V7.035Z" clip-rule="evenodd"/></svg>
